projects/oblique/icons/FolderOpen.svg

<?xml version="1.0" encoding="UTF-8"?><svg id="a" xmlns="http://www.w3.org/2000/svg" viewBox="0 0 24 24"><path d="M21.46359,8.80208v-2.86719h-13.31836v-2.68457H1.2507v17.5h18.30273l3.44336-11.94824h-1.5332ZM2.7507,4.75033h3.89453v2.68457h13.31836v1.36719H4.44699l-1.69629,5.88672V4.75033ZM18.42453,19.25033H2.99777l2.57812-8.94824h15.42676l-2.57812,8.94824Z"/></svg>

<svg xmlns="http://www.w3.org/2000/svg" viewBox="0 0 24 24"><title>FolderOpen</title><path d="M21.46359,8.80208V5.9349H8.14523V3.25033H1.2507v17.5H19.55344L22.9968,8.80208ZM2.7507,4.75033H6.64523V7.4349H19.96359V8.80208H4.447L2.7507,14.6888Zm15.67383,14.5H2.99777L5.5759,10.30208H21.00266Z" fill="#171717"/></svg>
